images/ico-bicro-marche-contrat.svg

<svg xmlns="http://www.w3.org/2000/svg" width="25" height="25" fill="none" viewBox="0 0 25 25"><g id="marche/contrat"><g id="Group 12"><circle id="Ellipse 7" cx="15.2651" cy="6.25" r="6.25" fill="#fdd"/><path id="Path 23" fill="#000638" d="M13.168 3.23779C13.3972 3.23779 13.5831 3.42364 13.5831 3.65289C13.5831 3.86781 13.4197 4.04458 13.2104 4.06584L13.168 4.06798H3.78478V21.1656L13.9917 21.0567C14.2066 21.0544 14.3851 21.2158 14.4086 21.4249L14.4112 21.4673C14.4135 21.6822 14.252 21.8607 14.0429 21.8842L14.0005 21.8868L3.37411 22C3.15758 22.0023 2.97832 21.8385 2.95676 21.6277L2.95459 21.585V3.65289C2.95459 3.43797 3.11793 3.26119 3.32724 3.23994L3.36968 3.23779H13.168Z"/><path id="Shape" fill="#000638" fill-rule="evenodd" d="M17.3978 3.61045C17.3765 3.40113 17.1998 3.23779 16.9848 3.23779H15.4905L15.4481 3.23994C15.2387 3.26119 15.0754 3.43797 15.0754 3.65289L15.0775 3.69533C15.0988 3.90464 15.2756 4.06798 15.4905 4.06798H16.5697V11.0506L16.5719 11.0931C16.5931 11.3024 16.7699 11.4657 16.9848 11.4657C17.2141 11.4657 17.3999 11.2799 17.3999 11.0506V3.65289L17.3978 3.61045ZM17.3976 17.4287C17.3763 17.2194 17.1996 17.0561 16.9846 17.0561L16.9422 17.0582C16.7329 17.0795 16.5695 17.2562 16.5695 17.4712V21.1217L15.4903 21.1219L15.4478 21.1241C15.2385 21.1453 15.0752 21.3221 15.0752 21.537C15.0752 21.7663 15.261 21.9521 15.4903 21.9521H16.9846L17.0271 21.95C17.2364 21.9287 17.3997 21.752 17.3997 21.537V17.4712L17.3976 17.4287Z" clip-rule="evenodd"/><path id="Oval" fill="#000638" fill-rule="evenodd" d="M7.93555 6.80755C7.93555 5.5696 8.9391 4.56604 10.1771 4.56604C11.415 4.56604 12.4186 5.5696 12.4186 6.80755C12.4186 8.0455 11.415 9.04906 10.1771 9.04906C8.9391 9.04906 7.93555 8.0455 7.93555 6.80755ZM11.5885 6.80754C11.5885 6.02809 10.9567 5.39622 10.1772 5.39622C9.39775 5.39622 8.76588 6.02809 8.76588 6.80754C8.76588 7.58699 9.39775 8.21886 10.1772 8.21886C10.9567 8.21886 11.5885 7.58699 11.5885 6.80754Z" clip-rule="evenodd"/><path id="Path 30" fill="#000638" d="M14.9924 9.54712C15.2217 9.54712 15.4075 9.73296 15.4075 9.96221C15.4075 10.1771 15.2442 10.3539 15.0349 10.3752L14.9924 10.3773H6.19244C5.96319 10.3773 5.77734 10.1915 5.77734 9.96221C5.77734 9.74729 5.94068 9.57052 6.15 9.54926L6.19244 9.54712H14.9924Z"/><path id="Path 31" fill="#000638" d="M10.177 10.8755C10.4063 10.8755 10.5921 11.0613 10.5921 11.2906C10.5921 11.5055 10.4288 11.6823 10.2194 11.7035L10.177 11.7057H5.02984C4.80059 11.7057 4.61475 11.5198 4.61475 11.2906C4.61475 11.0757 4.77809 10.8989 4.9874 10.8776L5.02984 10.8755H10.177Z"/><path id="Path 32" fill="#000638" d="M13.6638 11.8717C13.8931 11.8717 14.0789 12.0575 14.0789 12.2868C14.0789 12.5017 13.9156 12.6785 13.7063 12.6998L13.6638 12.7019H8.35064C8.12139 12.7019 7.93555 12.516 7.93555 12.2868C7.93555 12.0719 8.09889 11.8951 8.3082 11.8738L8.35064 11.8717H13.6638Z"/><path id="Path 33" fill="#000638" d="M9.34682 13.2C9.57607 13.2 9.76192 13.3858 9.76192 13.615C9.76192 13.83 9.59858 14.0067 9.38926 14.028L9.34682 14.0301H5.02984C4.80059 14.0301 4.61475 13.8443 4.61475 13.615C4.61475 13.4001 4.77809 13.2234 4.9874 13.2021L5.02984 13.2H9.34682Z"/><path id="Path 34" fill="#000638" d="M18.7623 11.5995C18.9585 11.4809 19.2137 11.5437 19.3323 11.7399L19.4857 11.9902L19.6322 12.2228C19.6561 12.26 19.6797 12.2966 19.7029 12.3324L19.8391 12.5384C19.9276 12.6697 20.0115 12.7892 20.0906 12.8967L20.2058 13.049C20.243 13.0968 20.279 13.1415 20.3138 13.1833C20.4172 13.3075 20.5075 13.4018 20.5817 13.4653L20.6531 13.5227C20.6588 13.5283 20.658 13.5308 20.6491 13.5317L20.6375 13.5321H21.7998C22.0291 13.5321 22.2149 13.7179 22.2149 13.9472C22.2149 14.1621 22.0516 14.3389 21.8423 14.3601L21.7998 14.3623H20.6375C20.2697 14.3623 19.8805 14.0309 19.3744 13.3288L19.26 13.1667L19.1415 12.9923L19.0186 12.8054C18.9978 12.7732 18.9768 12.7405 18.9555 12.7073L18.8258 12.5017L18.6912 12.2834C18.6684 12.246 18.6453 12.208 18.622 12.1695C18.5033 11.9734 18.5662 11.7182 18.7623 11.5995Z"/><path id="Path 35" fill="#000638" d="M16.9846 13.2C17.2138 13.2 17.3997 13.3858 17.3997 13.615C17.3997 13.83 17.2363 14.0067 17.027 14.028L16.9846 14.0301H13.9959C13.9833 14.0301 13.9767 14.0329 13.9789 14.07L13.9869 14.1393L13.9983 14.214C14.0124 14.3031 14.0418 14.3954 14.0778 14.4702L14.1008 14.5133L14.4115 14.4596C15.4668 14.2869 16.4287 14.3632 17.5034 14.9047C18.4141 15.3636 18.7194 15.7447 18.928 16.4312L18.95 16.5059C19.0214 16.7561 19.0613 16.8257 19.2064 16.9219C19.5845 17.1725 20.3273 17.3533 21.4166 17.4434L21.6847 17.4633C21.7305 17.4663 21.7768 17.4692 21.8237 17.4719C22.0526 17.4852 22.2274 17.6815 22.2141 17.9104C22.2008 18.1392 22.0045 18.314 21.7756 18.3007C20.3268 18.2165 19.326 17.9973 18.7477 17.6138C18.4253 17.4002 18.2896 17.185 18.1745 16.8108L18.117 16.6186C17.9758 16.1788 17.7963 15.9819 17.1299 15.6461C16.2733 15.2145 15.5117 15.1383 14.662 15.2609L14.2564 15.3293C14.1399 15.3493 14.0681 15.3584 13.9959 15.3584C13.5545 15.3584 13.2619 14.8696 13.1784 14.3444C13.0843 13.7529 13.3262 13.2355 13.9319 13.2017L13.9959 13.2H16.9846Z"/><path id="Path 24" fill="#000638" d="M19.1716 8.89119C19.3233 8.7279 19.5742 8.71527 19.7412 8.85463L19.7756 8.88681L20.6888 9.84137C20.833 9.99211 20.8417 10.2242 20.7154 10.3847L20.6863 10.4179L17.6146 13.5726C17.4546 13.7369 17.1918 13.7404 17.0276 13.5804C16.8743 13.4312 16.861 13.1923 16.99 13.0276L17.0198 12.9935L19.8117 10.1257L19.4796 9.77864L15.9609 13.5656C15.8152 13.7223 15.5767 13.7412 15.409 13.6161L15.3742 13.5871C15.2175 13.4414 15.1987 13.2029 15.3237 13.0352L15.3527 13.0005L19.1716 8.89119Z"/><path id="Path 36" fill="#000638" d="M15.3336 14.6832C15.4773 14.5046 15.7386 14.4763 15.9172 14.6201C16.0839 14.7542 16.1196 14.9908 16.0067 15.1669L15.9803 15.2037L14.3199 17.2665C14.2917 17.3015 14.2581 17.3316 14.2205 17.3558L14.1815 17.3779L11.857 18.5349C11.4873 18.719 11.114 18.312 11.307 17.9652L11.3282 17.9307L12.6142 16.0302L13.3269 15.034C13.4602 14.8475 13.7195 14.8045 13.906 14.9379C14.08 15.0624 14.1291 15.2965 14.0264 15.4788L14.0021 15.517L13.2956 16.5043L12.9007 17.0876L13.7306 16.6745L15.3336 14.6832Z"/><path id="Path 37" fill="#000638" d="M17.2844 11.1509C17.5129 11.1331 17.7127 11.3038 17.7306 11.5324C17.7485 11.7609 17.5777 11.9607 17.3492 11.9786L16.9552 12.0108L16.4747 12.0543L16.0461 12.0984L15.7591 12.1316L15.5023 12.1648L15.2758 12.1979L15.1418 12.2199L15.0217 12.2418L14.9154 12.2635L14.823 12.285L14.7448 12.3063C14.733 12.3098 14.7217 12.3133 14.711 12.3168L14.6541 12.3378C14.6491 12.3399 14.6467 12.3411 14.6449 12.3552L14.6422 12.3877L14.6406 12.4144C14.6319 12.5675 14.6847 12.8126 14.8069 13.1366C14.8878 13.3511 14.7795 13.5905 14.565 13.6714C14.3505 13.7523 14.111 13.644 14.0301 13.4295C13.6784 12.4968 13.7164 11.8297 14.3342 11.5717C14.3952 11.5462 14.4701 11.5215 14.559 11.4974L14.6726 11.4688L14.7999 11.4409L14.941 11.4135C14.9656 11.4089 14.9909 11.4044 15.0167 11.4L15.1787 11.3733L15.3547 11.3472L15.6455 11.3088L15.9686 11.2713L16.2022 11.2467L16.5801 11.2103L17.136 11.1627C17.1849 11.1588 17.2343 11.1549 17.2844 11.1509Z"/><path id="Path 38" fill="#000638" fill-rule="evenodd" d="M15.0116 15.3432L15.0619 15.1609C15.2796 14.4034 16.8516 14.18 17.5304 14.5876C17.8364 14.7713 18.1607 15.1958 18.5399 15.8825L18.6497 16.0858C18.6683 16.1209 18.687 16.1566 18.7059 16.1929L18.8206 16.4178C18.9527 16.6814 18.7757 16.9948 18.4818 17.0177L16.3528 17.1837C16.2449 17.1921 16.1379 17.1581 16.0548 17.0888L15.0585 16.2586C14.9639 16.1797 14.9092 16.0629 14.9092 15.9397C14.9092 15.7955 14.9436 15.6019 15.0116 15.3432ZM17.5157 15.7865C17.3566 15.5432 17.2242 15.3845 17.1261 15.3145L17.103 15.2993C16.9413 15.2022 16.547 15.2093 16.2452 15.2566L16.137 15.2761C15.9832 15.3077 15.8715 15.3496 15.8598 15.3902L15.8162 15.548L15.7825 15.6833L15.7643 15.7657L16.4563 16.3425L17.7873 16.2389L17.7486 16.17C17.732 16.141 17.7157 16.1127 17.6995 16.0851L17.6051 15.9275L17.5157 15.7865Z" clip-rule="evenodd"/></g></g></svg>

<svg xmlns="http://www.w3.org/2000/svg" width="25" height="25" fill="none" viewBox="0 0 25 25"><circle cx="15.2651" cy="6.25" r="6.25" fill="#FDD"/><path fill="#000638" d="M13.168 3.238a.415.415 0 0 1 .042.828l-.042.002H3.785v17.098l10.207-.11a.415.415 0 0 1 .417.369l.002.042a.415.415 0 0 1-.368.417l-.042.003L3.374 22a.415.415 0 0 1-.417-.372l-.002-.043V3.653c0-.215.163-.392.372-.413l.043-.002z"/><path fill="#000638" fill-rule="evenodd" d="M17.398 3.61a.415.415 0 0 0-.413-.372H15.49l-.043.002a.415.415 0 0 0-.373.413l.003.042c.02.21.198.373.413.373h1.079v6.983l.002.042a.415.415 0 0 0 .828-.042V3.653zm0 13.819a.415.415 0 0 0-.413-.373l-.043.002a.415.415 0 0 0-.372.413v3.65h-1.08l-.042.003a.415.415 0 0 0 .042.828h1.495l.042-.002a.415.415 0 0 0 .373-.413v-4.066zM7.936 6.808a2.242 2.242 0 1 1 4.483 0 2.242 2.242 0 0 1-4.483 0m3.653 0a1.411 1.411 0 1 0-2.823 0 1.411 1.411 0 0 0 2.823 0" clip-rule="evenodd"/><path fill="#000638" d="M14.992 9.547a.415.415 0 0 1 .043.828l-.043.002h-8.8a.415.415 0 0 1-.042-.828l.042-.002zm-4.815 1.329a.415.415 0 0 1 .042.828l-.042.002H5.03a.415.415 0 0 1-.043-.828l.043-.002zm3.487.996a.415.415 0 0 1 .042.828l-.042.002H8.35a.415.415 0 0 1-.043-.828l.043-.002zM9.347 13.2a.415.415 0 0 1 .042.828l-.042.002H5.03a.415.415 0 0 1-.043-.828l.043-.002zm9.415-1.6a.415.415 0 0 1 .57.14l.154.25.146.233.07.11.137.205q.133.197.252.359l.115.152q.055.072.108.134.156.187.268.282l.071.058q.01.008-.004.009h-.012H21.8a.415.415 0 0 1 .042.828l-.042.002h-1.163c-.367 0-.756-.331-1.263-1.033l-.114-.162-.119-.175-.122-.187-.063-.098-.13-.205-.135-.219-.069-.114a.415.415 0 0 1 .14-.57M16.985 13.2a.415.415 0 0 1 .042.828l-.042.002h-2.99c-.012 0-.018.003-.016.04l.008.07.011.074c.014.09.044.181.08.256l.023.043.31-.053c1.056-.173 2.018-.097 3.092.445.911.459 1.216.84 1.425 1.526l.022.075c.071.25.111.32.256.416.378.25 1.121.431 2.21.521l.269.02.139.009a.415.415 0 1 1-.048.829c-1.45-.084-2.45-.304-3.028-.687-.323-.214-.458-.429-.574-.803l-.057-.192c-.141-.44-.32-.637-.987-.973-.857-.432-1.618-.508-2.468-.385l-.406.068c-.116.02-.188.03-.26.03-.441 0-.734-.49-.818-1.015-.094-.591.148-1.108.754-1.142l.064-.002z"/><path fill="#000638" d="M19.172 8.891a.415.415 0 0 1 .57-.036l.034.032.913.954a.415.415 0 0 1 .026.544l-.029.033-3.071 3.155a.415.415 0 0 1-.625-.545l.03-.035 2.792-2.867-.332-.347-3.52 3.787a.415.415 0 0 1-.551.05l-.035-.029a.415.415 0 0 1-.05-.552l.029-.034zm-3.838 5.792a.415.415 0 0 1 .673.484l-.027.037-1.66 2.063a.4.4 0 0 1-.1.089l-.039.022-2.324 1.157c-.37.184-.743-.223-.55-.57l.021-.034 1.286-1.9.713-.997a.415.415 0 0 1 .7.445l-.025.038-.706.987-.395.584.83-.414z"/><path fill="#000638" d="M17.284 11.15a.415.415 0 0 1 .065.829l-.394.032-.48.043-.429.044-.287.034-.257.033-.226.033-.134.022-.12.022-.107.021-.092.022-.078.021-.034.01-.057.022c-.005.002-.007.003-.01.017l-.002.033-.001.026c-.01.154.044.399.166.723a.415.415 0 1 1-.777.293c-.352-.933-.314-1.6.304-1.858q.091-.038.225-.075l.114-.028.127-.028.141-.027.076-.014.162-.027.176-.026.29-.038.324-.038.233-.024.378-.037.556-.047z"/><path fill="#000638" fill-rule="evenodd" d="m15.012 15.343.05-.182c.218-.758 1.79-.981 2.468-.573.306.183.63.608 1.01 1.295l.11.203.056.107.115.225a.415.415 0 0 1-.34.6l-2.128.166a.42.42 0 0 1-.298-.095l-.996-.83a.42.42 0 0 1-.15-.32c0-.143.035-.337.103-.596m2.504.444q-.241-.367-.39-.473l-.023-.015c-.162-.097-.556-.09-.858-.042l-.108.02c-.154.03-.266.073-.277.113l-.044.158-.034.135-.018.083.692.577 1.331-.104-.038-.069-.05-.085-.094-.158z" clip-rule="evenodd"/></svg>
